X: 1
T: Brenda Stubbert's
R: reel
M: 4/4
L: 1/8
K: Ador
|:B|A/A/A (BA) GAAB|A/A/A (BA) edde|G2 (BA) BGGB| c2 (BA) BGGB|
A/A/A (BA) GAAB|A/A/A (BA) edda|gedB GABd|{d}e2 dB eAA:|
|:B|A/A/A a2 A/A/A g2| Aage ageg|G2 (BA) BGGB| c2 (BA) BGGB|
[1A/A/A a2 A/A/A g2| Aage agea| gedB GABd|{B}e2 dB eAA:|
[2A/A/A (BA) GAAB|A/A/A (BA) edda| gedB GABd|{d}e2 dB eAA|]


Tune 727	Setting 22864

